.files/icons/devices/Cassete.svg

<svg fill="none" height="48" viewBox="0 0 48 48" width="48" xmlns="http://www.w3.org/2000/svg"><g fill="#000"><rect height="4" opacity=".3" rx="1" width="28" x="10" y="30"/><g clip-rule="evenodd" fill-rule="evenodd"><path d="m4 25c0 4.9706 4.02944 9 9 9 4.9706 0 9-4.0294 9-9s-4.0294-9-9-9c-4.97056 0-9 4.0294-9 9zm14 0c0 2.7614-2.2386 5-5 5s-5-2.2386-5-5 2.2386-5 5-5 5 2.2386 5 5z"/><path d="m26 25c0 4.9706 4.0294 9 9 9s9-4.0294 9-9-4.0294-9-9-9-9 4.0294-9 9zm14 0c0 2.7614-2.2386 5-5 5s-5-2.2386-5-5 2.2386-5 5-5 5 2.2386 5 5z"/></g></g></svg>

<svg width="48" height="48" viewBox="0 0 48 48" fill="none" xmlns="http://www.w3.org/2000/svg">
<rect opacity="0.3" x="10" y="30" width="28" height="4" rx="1" fill="black"/>
<path fill-rule="evenodd" clip-rule="evenodd" d="M4 25C4 29.9706 8.02944 34 13 34C17.9706 34 22 29.9706 22 25C22 20.0294 17.9706 16 13 16C8.02944 16 4 20.0294 4 25ZM18 25C18 27.7614 15.7614 30 13 30C10.2386 30 8 27.7614 8 25C8 22.2386 10.2386 20 13 20C15.7614 20 18 22.2386 18 25Z" fill="black"/>
<path fill-rule="evenodd" clip-rule="evenodd" d="M26 25C26 29.9706 30.0294 34 35 34C39.9706 34 44 29.9706 44 25C44 20.0294 39.9706 16 35 16C30.0294 16 26 20.0294 26 25ZM40 25C40 27.7614 37.7614 30 35 30C32.2386 30 30 27.7614 30 25C30 22.2386 32.2386 20 35 20C37.7614 20 40 22.2386 40 25Z" fill="black"/>
</svg>
